!!!!SEGMENT: pl-wumfc--n30982_jarecki-henryk--powrot-taty-taniec-opryszkow.krn
!!!cenid: 18xx:4162
!!!COM: Jarecki, Henryk
!!!COM-rismID: pe41023315
!!!CDT:
!!!CNT:
!!!OTL: Powrót taty/Taniec opryszków
!!!PDT: 1897
!!!AGN:
!!!SMS-siglum: PL-Wumfc
!!!SMS-shelfmark: N30982
!!!SMS-shelfwork: W
!!!SMS-variant:
!!!SMS-altvar:
!!!NIFC-rismSourceID: 1001162059
!!!NIFC-rismChildID: 1001162059
!!!NIFC-islandoraID: pl-wumfc:3431
!!!URL-pdf-islandora: https://repozytorium.nifc.pl/islandora/object/pl-wumfc%3A3431/datastream/PDF/view
!!!URL-scan: https://polish.musicsources.pl/pl/lokalizacje/galeria/druki-muzyczne/12216-taniec-opryszkow/1 @EN{Scan on Polish Music Sources Website} @PL{Skany w portalu Dziedzictwo Muzyki Polskiej w otwartym dostępie}
!!!ONB-nifc:
!!!AIN: 2 piano
!!!key: C
**kern	**kern	**dynam
*part2	*part1	*part1
*staff2	*staff1	*
*I"Pianoforte	*I"Pianoforte	*
*	*I'pf	*
*Ipiano	*Ipiano	*
*ICklav	*ICklav	*
*clefF4	*clefG2	*
*k[]	*k[]	*
*C:	*C:	*
*M3/4	*M3/4	*
=1	=1	=1
2.r	4eee\	p
.	8eee\	.
.	4eee\	.
.	[8eee\	.
=2	=2	=2
2.r	8eee\L]	.
.	8eee\	.
.	8eee\	.
.	8eee\	.
.	8eee\	.
.	8eee\J	.
=3	=3	=3
2.r	[4ddd#X\	.
!	!LO:TUP:a	!
.	(24ddd#\LL]	.
.	24eee\	.
.	24fff\	.
.	24eee\	.
.	24dddn\	.
.	24ccc\JJ	.
!	!LO:TUP:a	!
.	24bb\LL	.
.	24ccc\	.
.	24ddd\	.
.	24ccc\	.
.	24bb\	.
.	24aa\JJ	.
!LO:LB:g=original	!LO:LB:g=original	!
=4	=4	=4
2.r	[4gg#X\)	.
.	(16gg#\LL]	.
.	16aa\	.
.	16bb\	.
.	16ccc\JJ	.
.	16bb\LL	.
.	16ccc\	.
.	16ddd#X\	.
.	16eee\JJ	.
=5	=5	=5
2.r	4.aaa\)	.
.	(8fff\L	.
.	8eee\	.
.	8ccc\J	.
=6	=6	=6
2.r	4.bb\)	.
*	*Xtuplet	*
.	(24bb\LL	.
.	24ccc\	.
.	24ddd\JJ	.
.	8ccc\L	.
.	16bb\L	.
.	16ee\JJ	.
*	*tuplet	*
=7	=7	=7
2.r	16aa\LL)	.
.	16eee\JJ	.
.	4eee\	.
.	(8ccc\L	.
.	8bb\	.
.	8aa\J	.
=8	=8	=8
2.r	4.gg\)	.
!	!LO:TUP:a	!
.	(24aa\LL	.
.	24bb\	.
.	24aa\JJ	.
.	8gg\L	.
.	16ff#X\L	.
.	16b\JJ	.
!LO:LB:g=original	!LO:LB:g=original	!
=9	=9	=9
2.r	4ee\)	.
.	8r	.
.	(16eee\LL	.
.	16ddd\JJ	.
.	16qqccc/LL	.
.	16qqddd/JJ	.
.	16ccc\LL	.
.	16bb\	.
.	16ccc\	.
.	16aa\JJ	.
=10	=10	=10
2.r	16ggn\LL	.
.	16bb\JJ)	.
.	(4bb\	.
.	16eee\LL	.
.	16ddd\JJ	.
.	16qqccc/LL	.
.	16qqddd/JJ	.
.	16ccc\LL	.
.	16bb\	.
.	16ccc\	.
.	16aa\JJ	.
=11	=11	=11
2.r	8gg#X\)	.
.	(4bb\	.
.	4ddd\	.
.	8fff\	.
=12	=12	=12
!	!LO:TX:b:i:t=rallen.	!
2.r	4.eee\)	.
.	(16ddd\LL	.
.	16ccc\JJ	.
.	16bb\LL	.
.	16ddd\	.
.	16ccc\	.
.	16bb\JJ	.
!LO:LB:g=original	!LO:LB:g=original	!
=13	=13	=13
*M2/4	*M2/4	*
!	!LO:TX:a:B:t=Allegretto	!
!	!LO:TX:a:B:t=Allegretto	!
2r	8aa\L)	.
.	16aa\L	.
.	16ccc\JJ	.
.	(8bb\L	.
.	8eee\J)	.
=14	=14	=14
2r	8aa\L	.
.	16aa\L	.
.	16ccc\JJ	.
.	(8bb\L	.
.	8ee\J)	.
=15	=15	=15
2r	8aa\L	.
.	16aa\L	.
.	16ccc#X\JJ	.
.	(16bb\LL	.
.	16eee\J)	.
.	8eee\J	.
=16	=16	=16
2r	8aa\L	.
.	16aa\L	.
.	16ccc#X\JJ	.
.	(16bb\LL	.
.	16ee\J)	.
.	8ee\J	.
=17	=17	=17
2r	2aaT\	.
*clefG2	*	*
=18	=18	=18
!	!LO:TX:t=P:problem:LO:N:vis=4.	!
2a\ 2ee 2gg	4aa\	p
.	(16gg#X\LL	.
.	16aa\	.
.	16bb\	.
.	16ccc#X\JJ)	.
!LO:LB:g=original	!LO:LB:g=original	!
=19||	=19||	=19||
*k[b-]	*k[b-]	*
*	*8va	*
!	!LO:TX:a:t=Kołomejka	!
8qd/	.	.
[2a/ [2ff	16ddd\LL	.
.	16eee\	.
.	16fff\	.
.	16ggg\JJ	.
.	8aaa\L	.
.	8aaa\J	.
=20	=20	=20
2a/_ 2ff_	8ggg#X\L	.
.	8ggg#\J	.
.	(16qqaaa/LL	.
.	16qqbbb-/JJ	.
.	8aaa\L)	.
.	16fff\L	.
.	16eee\JJ	.
=21	=21	=21
8qd/	.	.
2a/_ 2ff_	8ddd\L	.
.	8eee\	.
.	8fff\	.
.	8ggg\J	.
=22	=22	=22
2a/] 2ff]	4aaa\	.
.	4aaa\	.
=23	=23	=23
*	*^	*
2d/ 2a 2cc#X	8aa/L	2gg\	.
.	8qddd#X/	.	.
.	8eee/J	.	.
.	8qddd#/	.	.
.	8eee/L	.	.
.	16dddn/L	.	.
.	16ccc#X/JJ	.	.
*	*v	*v	*
=24	=24	=24
8qd/	.	.
2a/ 2ff	8ddd\L	.
.	(16eee\L	.
.	16fff\JJ	.
.	16ggg\LL	.
.	16fff\)	.
.	16eee\	.
.	16ddd\JJ	.
!LO:LB:g=original	!LO:LB:g=original	!
=25	=25	=25
*	*^	*
2d/ 2a 2ee	8ccc#X/L	2gg\	.
.	8eee/J	.	.
.	8aa/L	.	.
.	(<16bbn/L	.	.
.	16ccc#/JJ	.	.
=26	=26	=26	=26
2d/ 2a 2dd	4ddd/)	2ff\	.
.	4ddd/	.	.
*	*v	*v	*
*	*X8va	*
*clefF4	*	*
=27	=27	=27
!	!LO:TX:a:t=loco	!
8DD\L	(16dd\LL	f
.	16ee\)	.
8A\ 8f	16ff\	.
.	16gg\JJ	.
8D\	8aa\L	.
8A\J 8f	(8aa\J	.
=28	=28	=28
8D\L	8gg#X\L)	.
8A\ 8f	8gg#\J	.
.	(16qqaa/LL	.
.	16qqbb-/JJ	.
8D\	8aa\L)	.
8A\J 8f	16ff\L	.
.	16ee\JJ	.
=29	=29	=29
8D\L	8dd\L	.
!	!LO:TX:t=P:problem:znak dopisany niebieskim tuszem	!
8A\ 8f	8cc#X\ 8ee	.
8D\	8dd\ 8ff	.
8A\J 8f	8ee\J 8gg	.
=30	=30	=30
8D\L	4ff\ 4aa	.
8A\ 8f	.	.
8D\	4ff\ 4aa	.
8A\J 8f	.	.
!LO:LB:g=original	!LO:LB:g=original	!
=31	=31	=31
8DD\L	(16dd\LL	.
.	16ee\)	.
8A\ 8f	16ff\	.
.	16gg\JJ	.
8D\	8aa\L	.
8A\J 8f	(8aa\J	.
=32	=32	=32
8D\L	8gg#X\L)	.
8A\ 8f	8gg#\J	.
.	(16qqaa/LL	.
.	16qqbb-/JJ	.
8D\	8aa\L)	.
8A\J 8f	16ff\L	.
.	16ee\JJ	.
=33	=33	=33
8D\L	8ff\L	.
8A\ 8f	8ff\J	.
8D\	(16ee\LL	.
.	16gg\)	.
8A\J 8c#X 8g	16ff'\	.
.	16ee'\JJ	.
=34	=34	=34
2D\ 2A 2d	(16dd/LL	.
.	16a/	.
.	16f/	.
.	16a/JJ)	.
.	4dd\	.
=35	=35	=35
8C#X\L	8a\L	.
.	(8qdd#X/	.
8G\ 8A 8e	8ee\J)	.
.	(8qdd#/	.
8AA\	8ee\L)	.
8G\J 8A 8e	(16ddn\L	.
.	16cc#X\JJ	.
!LO:LB:g=original	!LO:LB:g=original	!
=36	=36	=36
8D\L	8dd\L)	.
8F\ 8A 8d	(16ee\L	.
.	16ff\JJ	.
8AA\	16gg\LL)	.
.	16ff\	.
8F\J 8A 8d	16ee'\	.
.	16dd'\JJ	.
=37	=37	=37
8E\L	(8cc#X\L	.
8G\ 8A 8c#X	8ee\J)	.
8AA\	8a\L	.
8G\J 8A 8e	(16bn\L	.
.	16cc#\JJ	.
=38	=38	=38
8D\L	4dd\)	.
8F\ 8A 8d	.	.
8AA\	4f/ 4a 4dd	.
8F\J 8A 8d	.	.
=39	=39	=39
8C\L	8a\L	.
.	(8qdd#X/	.
8G\ 8A 8e	8ee\J)	.
.	(8qdd#/	.
8AA\	8ee\L)	.
8G\J 8A 8e	(16ddn\L	.
.	16cc#X\JJ	.
=40	=40	=40
8D\L	8dd\L)	.
8F\ 8A 8d	(16ee\L	.
.	16ff\JJ	.
8AA\	16gg\LL	.
.	16ff\)	.
8F\J 8A 8d	16ee'\	.
.	16dd'\JJ	.
!LO:LB:g=original	!LO:LB:g=original	!
=41	=41	=41
8E\L	8cc#X\L	.
8G\ 8A 8c#X	8ee\J	.
8AA\	8a/L	.
8G\J 8A 8e	(16bn/L	.
.	16cc#/JJ	.
=42	=42	=42
4.D\ 4.A 4.d	16dd/LL	.
.	16a/)	.
.	(<16f/	.
.	16a/JJ	.
.	4dd\)	.
8DD/	.	.
=43	=43	=43
4D\ 4F#X 4c	(16a\LL 16ff#X	ff
.	16dd\)	.
.	16ff#\	.
.	16aa\JJ	.
8G\L 8B-	8g\L 8b- 8gg	.
8G\J 8B-	8g\J 8b- 8gg	.
=44	=44	=44
8r	4.b-\ 4.bb- 4.ddd	>
16GG/LL 16D 16G	.	.
16GG/JJ 16D 16G	.	.
4GG/ 4D 4G	.	.
.	(16aa\LL 16ccc	.
.	16gg\JJ 16bb-	]]
=45	=45	=45
8AA\L	8ff\L) 8aa	p
8G\ 8A 8c#X	8ee\ 8gg	.
8AA\	8dd\ 8ff	.
8G\J 8A 8e	8cc#X\J 8ee	.
!LO:LB:g=original	!LO:LB:g=original	!
=46	=46	=46
4D\ 4A 4d	(16dd\LL 16ff	.
.	16ee\JJ 16gg	.
.	4.ff\) 4.aa	.
8D\L 8A 8d	.	.
8D\J 8A 8d	.	.
=47	=47	=47
*	*^	*
4D\ 4A 4c#X	8a/L	4g\	.
.	(<16ee/L	.	.
.	16ff/JJ	.	.
8D\L	16dd/LL	4ryy	.
.	16aa/J)	.	.
8A\J 8f	8aa/J	.	.
=48	=48	=48	=48
4D\ 4A 4c#X	8a/L	4g\	.
.	(<16ee/L	.	.
.	16ff/JJ	.	.
8D\L	16dd/LL	4ryy	.
.	16aa/J)	.	.
8A\J 8f	8aa/J	.	.
*	*v	*v	*
=49	=49	=49
4.GG/ 4.D 4.G	(8bb-\L	.
.	8gg\	.
.	8ee\	.
(8GG#X/	(((8f\J 8bn 8dd	.
=50	=50	=50
8AA\L)	4e/)))) 4a 4cc#X	.
8E\ 8c#X	.	.
8AA\	8r	.
8E\J 8c#	(8ccc#X\	.
=51	=51	=51
8AA\L	8.bbn\L)	.
8E\ 8d	.	.
.	(16ee\Jk	.
8AA\	8ff#X\L	.
8E\J 8d	8gg#X\J)	.
!LO:LB:g=original	!LO:LB:g=original	!
=52	=52	=52
8AA\L	(16aa\LL	.
.	16bbn\	.
8E\ 8c#X	16ccc#X\	.
.	16ddd\JJ	.
8AA\	8eee\L)	.
8E\J 8c#	8ccc#\J	.
=53	=53	=53
8AA\L	8bbn\L	.
.	8qqccc#X/	.
8E\ 8d	(16bb\L	.
.	16aa\JJ	.
8AA\	8bb\L)	.
8E\J 8d	(8ccc#\J	.
=54	=54	=54
8AA\L	4aa\)	.
8E\ 8c#X	.	.
8AA\	8r	.
8E\J 8c#	(8cc#X\ 8ccc#X	.
=55	=55	=55
8AA\L	8.bn\L) 8.bbn	.
8E\ 8d	.	.
.	16e\Jk 16ee	.
8AA\	(8f#X\L 8ff#X	.
!	!LO:TX:t=P:problem:znak dopisany niebieskim tuszem	!
8E\J 8d	8g#X\J 8gg#X	.
=56	=56	=56
8AA\L	16a\LL 16aa	.
.	16bn\) 16bbn	.
8E\ 8c#X	16cc#X\ 16ccc#X	.
.	16dd\JJ 16ddd	.
8AA\	8ee\L 8eee	.
8E\J 8c#	(8cc#\J 8ccc#	.
!LO:LB:g=original	!LO:LB:g=original	!
=57	=57	=57
8AAn\L	8bn\L) 8bbn	.
.	8qccc#X/	.
8E\ 8d	16b\L 16bb	.
.	16a\JJ 16aa	.
8AA\	(16b\LL 16bb	.
.	16ddd\)	.
8E\J 8d	16cc#X\ 16ccc#	.
.	16b\JJ 16bb	.
=58	=58	=58
8AA\L	4.a\ 4.aa	.
(8E\ 8c#X	.	.
8F\J) 8d	.	.
.	8qbbn/	.
8r	(16a\LL 16aa	.
.	16g#X\JJ) 16gg#X	.
=59	=59	=59
(8AA\L	4.a\ 4.aa	.
8E\ 8c#X	.	.
8F\J) 8d	.	.
.	8qbbn/	.
8r	(16a\LL 16aa	.
.	16g#X\JJ 16gg#X	.
=60	=60	=60
8AA\L	8a\L) 8aa	.
.	8qbbn/	.
(8F\ 8d	(16a\L 16aa	.
.	16g#X\JJ 16gg#X	.
8E\ 8c#X	8a\L) 8aa	.
.	8qbb/	.
8F\J 8d	16a\L 16aa	.
.	16g#\JJ 16gg#	.
=61	=61	=61
4E\) 4c#X	8a\L 8aa	.
.	8a\ 8aa	.
4r	8a\ 8aa	.
.	8a\J 8aa	.
!LO:PB:g=original	!LO:PB:g=original	!
=62	=62	=62
8C#X\L	8a\L	p
.	(8qdd#X/	.
8G\ 8A 8e	8ee\J)	.
.	(8qdd#/	.
8AA\	8ee\L)	.
8G\J 8A 8e	16ddn\L	.
.	16cc#X\JJ	.
=63	=63	=63
8D\L	8dd\L	.
8F\ 8A 8d	(16ee\L	.
.	16ff\JJ	.
8AA\	16gg\LL	.
.	16ff\	.
8F\J 8A 8d	16ee\	.
.	16dd\JJ)	.
=64	=64	=64
8E\L	8cc#X\L	.
8G\ 8A 8c#X	8ee\J	.
8AA\	(8a\L	.
8G\J 8A 8e	16bn\L	.
.	16cc#\JJ	.
=65	=65	=65
8D\L	4dd\)	.
8F\ 8A 8d	.	.
8AA\	4f/ 4a 4dd	.
8F\J 8A 8d	.	.
!LO:LB:g=original	!LO:LB:g=original	!
=66	=66	=66
8C#X\L	8a\L	.
.	8qdd#X/	.
8G\ 8A 8e	8ee\J	.
.	8qdd#/	.
8AA\	8ee\L	.
8G\J 8A 8e	16ddn\L	.
.	16cc#X\JJ	.
=67	=67	=67
8D\L	8dd\L	.
8F\ 8A 8d	(16ee\L	.
.	16ff\JJ	.
8AA\	16gg\LL	.
.	16ff\	.
8F\J 8A 8d	16ee\	.
.	16dd\JJ)	.
=68	=68	=68
8E\L	(8cc#X\L	.
8G\ 8A 8c#X	8ee\J	.
8AA\	8a/L)	.
8G\J 8A 8c#	16bn/L	.
.	16cc#/JJ	.
=69	=69	=69
2D\ 2A 2d	(<16dd/LL	.
.	16a/	.
.	16f/	.
.	16a/JJ	.
.	4dd\)	.
!LO:LB:g=original	!LO:LB:g=original	!
=70!|:	=70!|:	=70!|:
8DD/L	(16a\LL	.
.	16dd\)	.
8AA/ 8F	16ff\	.
.	16aa\JJ	.
8DD/	8gg#X\L	.
8AA/J 8F	(8gg#\J	.
=71	=71	=71
8DD/L	8aa\L)	.
.	(16qqff/LL	.
.	16qqgg/JJ	.
8AA/ 8F	(8ff\)	.
8DD/	8ee\	.
8AA/J 8F	8dd\J)	.
=72	=72	=72
8DD/L	(16a\LL	.
.	16dd\)	.
8AA/ 8F	16ff\	.
.	16aa\JJ	.
8DD/	8gg#X\L	.
8AA/J 8F	(8gg#\J	.
=73	=73	=73
8DD/L	8aa\L)	.
.	(16qqff/LL	.
.	16qqgg/JJ	.
8AA/ 8F	(16ff\L)	.
.	16ee\JJ	.
8DD/	4dd\)	.
8AA/J 8F	.	.
=74	=74	=74
8DD/L	(16a\LL	.
.	16dd\	.
8AA/ 8F	16ff\	.
.	16aa\JJ)	.
8DD/	8gg#X\L	.
8AA/J 8F	(8gg#\J	.
!LO:LB:g=original	!LO:LB:g=original	!
=75	=75	=75
8DD/L	8aa\L)	.
.	(16qqff/LL	.
.	16qqgg/JJ	.
8AA/ 8F	(8ff\)	.
8DD/	8ee\	.
8AA/J 8F	8dd\J)	.
=76	=76	=76
8DD/L	8ff\L	.
8AA/ 8F	8ff\J	.
8DD/	(16ee\LL	.
.	16gg\)	.
!LO:TX:t=P:problem:G i znak zapytania niebieskim tuszem	!	!
8AA/J 8F	16ff\	.
.	16ee\JJ	.
=77	=77	=77
8DD/L	4.dd\	.
8AA/ 8F	.	.
8DD/	.	.
8AA/J 8F	8r	.
=78:|!	=78:|!	=78:|!
8qDD/	.	.
4.AA/ 4.F	(16dd/LL	.
.	16a/	.
.	16f/	.
.	16a/JJ)	.
.	4dd\	.
8DD/	.	.
=79	=79	=79
4D\ 4F#X 4c	(16a\LL 16ff#X	f
.	16dd\	.
.	16ff#\)	.
.	16aa\JJ	.
8G\L 8B-	8b-\L 8dd 8gg	.
8G\J 8B-	8b-\J 8dd 8gg	.
!LO:LB:g=original	!LO:LB:g=original	!
=80	=80	=80
8r	((((4g/ 4a 4cc#X 4ee	.
16AA\LL 16A	.	.
16AA\JJ 16A	.	.
8D\L 8d	4f#X/)))) 4a 4dd 4ff#X	.
8DD\J	.	.
=81	=81	=81
4D\ 4F#X 4c	(16a\LL 16ff#X	.
.	16dd\	.
.	16ff#\)	.
.	16aa\JJ	.
8G\L 8B-	8b-\L 8dd 8gg	.
8G\J 8B-	8b-\J 8dd 8gg	.
=82	=82	=82
8r	((((4g/ 4a 4cc#X 4ee	.
16AA\LL 16A	.	.
16AA\JJ 16A	.	.
8D\L 8d	4f#X/)))) 4a 4dd	.
8DD\J	.	.
=83	=83	=83
4D\ 4F#X 4c	(16a\LL 16ff#X	.
.	16dd\	.
.	16ff#\)	.
.	16aa\JJ	.
8G\L 8B-	8b-\L 8dd 8gg	.
8G\J 8B-	8b-\J 8dd 8gg	.
=84	=84	=84
8r	((((4g/ 4a 4cc#X 4ee	.
16AA\LL 16A	.	.
16AA\JJ 16A	.	.
8D\L 8d	4f#X/)))) 4a 4dd 4ff#X	.
8DD\J	.	.
!LO:LB:g=original	!LO:LB:g=original	!
=85	=85	=85
4D\ 4F#X 4c	(16a\LL 16ff#X	.
.	16dd\	.
.	16ff#\)	.
.	16aa\JJ	.
8G\L 8B-	8b-\L 8dd 8gg	.
8G\J 8B-	8b-\J 8dd 8gg	.
=86	=86	=86
8r	[2g\ [2a [2cc#X [2ee	.
16AA/LL	.	.
16AA/JJ	.	.
8A/L	.	.
8AA/J	.	.
=87	=87	=87
8A/L	4..g/] 4..a] 4..cc#] 4..ee]	.
8AA/	.	.
8A/J	.	.
16r	.	.
16DD/ 16D	16f#X/ 16a 16dd	.
=88	=88	=88
*tremolo	*	*
16DD/LL	[2f#X/ [2a [2dd	.
16D/	.	.
16DD/	.	.
16D/	.	.
16DD/	.	.
16D/	.	.
16DD/	.	.
16D/JJ	.	.
=89	=89	=89
16DD/LL	2f#/] 2a] 2dd]	.
16D/	.	.
16DD/	.	.
16D/	.	.
16DD/	.	.
16D/	.	.
16DD/	.	.
16D/JJ	.	.
=90	=90	=90
4DD/ 4D	4f#X/ 4a 4dd	.
4r;	4r;	.
==	==	==
*-	*-	*-
!!!RDF**kern: > = above
!!!RDF**kern: < = below
!!!system-decoration: [(s1,s2)]
!!!ENC: Filip Voros
!!!END: 2022-09-07
!!!ENC: Julita Ruszuk
!!!END: 2022-09-21
!!!YEC: Copyright 2022 Narodowy Instytut Fryderyka Chopina (https://polishscores.org)
!!!YEM: License CC-BY-4.0 (https://creativecommons.org/licenses/by/4.0)
